svgs/solid/face-pleading.svg

<svg xmlns="http://www.w3.org/2000/svg" viewBox="0 0 512 512"><!--! Font Awesome Pro 6.2.0 by @fontawesome - https://fontawesome.com License - https://fontawesome.com/license (Commercial License) Copyright 2022 Fonticons, Inc. --><path d="M512 256c0 141.4-114.6 256-256 256S0 397.4 0 256S114.6 0 256 0S512 114.6 512 256zM302.7 427.9c6.6-5.9 7.1-16 1.2-22.6C294.7 395.1 278.7 384 256 384s-38.7 11.1-47.9 21.3c-5.9 6.6-5.4 16.7 1.2 22.6s16.7 5.4 22.6-1.2c4.7-5.3 12.7-10.7 24.1-10.7s19.4 5.4 24.1 10.7c5.9 6.6 16 7.1 22.6 1.2zM240 240c0-41.5-31.5-75.6-72-79.6c10-10.8 17.6-24.1 21.9-38.8l1.5-5.2c2.4-8.5-2.5-17.4-11-19.8s-17.4 2.5-19.8 11l-1.5 5.2c-7 24.7-28.1 42.7-53.6 45.9L94 160.1c-8.8 1.1-15 9.1-13.9 17.9c1 8.1 7.9 14 15.9 14c-10 13.4-16 30-16 48c0 44.2 35.8 80 80 80s80-35.8 80-80zm192 0c0-18-6-34.6-16-48c8 0 14.9-5.9 15.9-14c1.1-8.8-5.1-16.8-13.9-17.9l-11.5-1.4c-25.5-3.2-46.6-21.3-53.6-45.9l-1.5-5.2c-2.4-8.5-11.3-13.4-19.8-11s-13.4 11.3-11 19.8l1.5 5.2c4.2 14.8 11.8 28 21.9 38.8c-40.4 4-72 38.1-72 79.6c0 44.2 35.8 80 80 80s80-35.8 80-80zm-304-8c17.7 0 32-14.3 32-32c0-5.8-1.5-11.2-4.2-15.8c1.4-.1 2.8-.2 4.2-.2c30.9 0 56 25.1 56 56s-25.1 56-56 56s-56-25.1-56-56c0-5.7 .8-11.2 2.4-16.4c5.7 5.2 13.3 8.4 21.6 8.4zm224-32c0-5.8-1.5-11.2-4.2-15.8c1.4-.1 2.8-.2 4.2-.2c30.9 0 56 25.1 56 56s-25.1 56-56 56s-56-25.1-56-56c0-5.7 .8-11.2 2.4-16.4c5.7 5.2 13.3 8.4 21.6 8.4c17.7 0 32-14.3 32-32z"/></svg>

<svg xmlns="http://www.w3.org/2000/svg" viewBox="0 0 512 512"><!--! Font Awesome Pro 6.1.2 by @fontawesome - https://fontawesome.com License - https://fontawesome.com/license (Commercial License) Copyright 2022 Fonticons, Inc. --><path d="M128 232C145.7 232 160 217.7 160 200C160 194.2 158.5 188.8 155.8 184.2C157.2 184.1 158.6 184 160 184C190.9 184 216 209.1 216 240C216 270.9 190.9 296 160 296C129.1 296 104 270.9 104 240C104 234.3 104.8 228.8 106.4 223.6C112.1 228.8 119.7 232 128 232zM347.8 184.2C349.2 184.1 350.6 184 352 184C382.9 184 408 209.1 408 240C408 270.9 382.9 296 352 296C321.1 296 296 270.9 296 240C296 234.3 296.8 228.8 298.4 223.6C304.1 228.8 311.7 232 320 232C337.7 232 352 217.7 352 200C352 194.2 350.5 188.8 347.8 184.2zM512 256C512 397.4 397.4 512 256 512C114.6 512 0 397.4 0 256C0 114.6 114.6 0 256 0C397.4 0 512 114.6 512 256zM303.9 405.3C294.7 395.1 278.7 384 256 384C233.3 384 217.3 395.1 208.1 405.3C202.2 411.9 202.7 421.1 209.3 427.9C215.9 433.8 225.1 433.3 231.9 426.7C236.6 421.4 244.6 416 255.1 416C267.4 416 275.4 421.4 280.1 426.7C286 433.3 296.1 433.8 302.7 427.9C309.3 421.1 309.8 411.9 303.9 405.3H303.9zM168 160.4C178.1 149.6 185.7 136.3 189.9 121.5L191.4 116.4C193.8 107.9 188.9 99.04 180.4 96.62C171.9 94.19 163 99.11 160.6 107.6L159.1 112.8C152.1 137.4 130.1 155.5 105.5 158.7L94.02 160.1C85.25 161.2 79.03 169.2 80.12 177.1C81.14 186.1 88.04 192 95.99 192C85.95 205.4 80 221.1 80 240C80 284.2 115.8 320 160 320C204.2 320 240 284.2 240 240C240 198.5 208.5 164.4 168 160.4zM416 192C423.1 192 430.9 186.1 431.9 177.1C432.1 169.2 426.8 161.2 417.1 160.1L406.5 158.7C381 155.5 359.9 137.4 352.9 112.8L351.4 107.6C348.1 99.11 340.1 94.19 331.6 96.62C323.1 99.04 318.2 107.9 320.6 116.4L322.1 121.5C326.3 136.3 333.9 149.6 343.1 160.4C303.5 164.4 272 198.5 272 240C272 284.2 307.8 320 352 320C396.2 320 432 284.2 432 240C432 221.1 426 205.4 416 192z"/></svg>
